X: 61
T: Quail Dance Song
C: Anon.
%%abc-version 2.0
%%abcx-abcm2ps-target-version 5.9.1 (29 Sep 2008)
%%abc-creator hum2abc beta
%%abcx-conversion-date 2020/08/10 20:56:09
%%abc-copyright Electronic Copyright 2000 David Huron
%%abc-edited-by David Huron
%%abcx-initial-encoding-date August 30, 2000
%%humdrum-veritas 957474507
%%humdrum-veritas-data 1989556970
%%linebreak <none>
%%barnumbers 0
L: 1/8
M: 2/4
Q: 1/4=76
K: A clef=bass
A,2C A, [I:setbarnb 2]| 
A,> F, F, z | 
A,2C A, | 
A,> E, E, z[M:3/4] | 
B, B, E, A, E,/ E, F,/[M:2/4] :|]  
E,2E, E, [I:setbarnb 7]| 
E, E, E, z | 
A, A,/ z/ A, B,/ z/ | 
A, A, B, A, | 
C C B,/> B,/ A, | 
B, B, C/> B,/ A, | 
F,/ z/ A, A, A,/ z/[M:3/8] | 
A, B, A,[M:2/4] | 
C C B,/> B,/ A, | 
B, B, C/> B,/ A,[M:3/4] | 
F,/ z/ A, A, A,/ z/ A, A, |]  


